assets/icons/zoom/fit-best.svg

<?xml version="1.0" encoding="UTF-8" standalone="no"?>
<svg viewBox="0 0 24 24" height="24" width="24" version="1.1" id="svg4" sodipodi:docname="fit-best.svg" inkscape:version="1.1 (ce6663b3b7, 2021-05-25)"
   xmlns:inkscape="http://www.inkscape.org/namespaces/inkscape"
   xmlns:sodipodi="http://sodipodi.sourceforge.net/DTD/sodipodi-0.dtd"
   xmlns="http://www.w3.org/2000/svg"
   xmlns:svg="http://www.w3.org/2000/svg">
   <defs id="defs8" />
   <sodipodi:namedview id="namedview6" pagecolor="#ffffff" bordercolor="#666666" borderopacity="1.0" inkscape:pageshadow="2" inkscape:pageopacity="0.0" inkscape:pagecheckerboard="0" showgrid="true" inkscape:snap-page="true" inkscape:zoom="28" inkscape:cx="12.839286" inkscape:cy="13.214286" inkscape:window-width="1920" inkscape:window-height="1043" inkscape:window-x="1920" inkscape:window-y="0" inkscape:window-maximized="1" inkscape:current-layer="svg4">
      <inkscape:grid type="xygrid" id="grid909" />
   </sodipodi:namedview>
   <path id="path860" style="color:#000000;fill:#808080;fill-opacity:1;-inkscape-stroke:none" d="M 6.7871094 4 C 6.1101636 4.0055872 5.5365074 4.0481526 5.0273438 4.3027344 C 4.6879015 4.4724556 4.3973384 4.765168 4.2304688 5.140625 C 4.063599 5.516082 4 5.9583339 4 6.5 L 4 11 L 5 11 L 5 6.5 C 5 6.0416671 5.0614011 5.7339174 5.1445312 5.546875 C 5.2276612 5.3598326 5.3120992 5.2775442 5.4726562 5.1972656 C 5.7937705 5.0367085 6.500001 5 7.5 5 L 11 5 L 11 4 L 7.5 4 C 7.2500003 4 7.012758 3.9981376 6.7871094 4 z M 13 4 L 13 5 L 16.5 5 C 17.499999 5 18.20623 5.036708 18.527344 5.1972656 C 18.687901 5.2775446 18.772339 5.3598326 18.855469 5.546875 C 18.938599 5.7339174 19 6.0416671 19 6.5 L 19 11 L 20 11 L 20 6.5 C 20 5.9583339 19.9364 5.516082 19.769531 5.140625 C 19.602661 4.765168 19.312099 4.4724556 18.972656 4.3027344 C 18.293771 3.963292 17.499999 4 16.5 4 L 13 4 z M 4 13 L 4 17.5 C 4 18.041666 4.0635991 18.483918 4.2304688 18.859375 C 4.3973385 19.234832 4.6879015 19.527544 5.0273438 19.697266 C 5.7062285 20.036708 6.500001 20 7.5 20 L 11 20 L 11 19 L 7.5 19 C 6.500001 19 5.7937706 18.96329 5.4726562 18.802734 C 5.3120991 18.722454 5.2276613 18.640167 5.1445312 18.453125 C 5.0614013 18.266083 5 17.958333 5 17.5 L 5 13 L 4 13 z M 19 13 L 19 17.5 C 19 17.958333 18.9386 18.266083 18.855469 18.453125 C 18.772339 18.640167 18.687901 18.722456 18.527344 18.802734 C 18.20623 18.963291 17.499999 19 16.5 19 L 13 19 L 13 20 L 16.5 20 C 17.499999 20 18.293771 20.03671 18.972656 19.697266 C 19.312099 19.527544 19.602661 19.234832 19.769531 18.859375 C 19.936401 18.483918 20 18.041666 20 17.5 L 20 13 L 19 13 z " />
</svg>

<svg height="24" width="24" xmlns="http://www.w3.org/2000/svg"><path style="color:#000;fill:gray;fill-opacity:1;-inkscape-stroke:none" d="M6.787 4c-.677.006-1.25.048-1.76.303-.34.17-.63.462-.797.838C4.064 5.516 4 5.958 4 6.5V11h1V6.5c0-.458.061-.766.145-.953a.615.615 0 0 1 .328-.35C5.793 5.037 6.5 5 7.5 5H11V4H7.5c-.25 0-.487-.002-.713 0zM13 4v1h3.5c1 0 1.706.037 2.027.197.16.08.245.163.328.35.084.187.145.495.145.953V11h1V6.5c0-.542-.064-.984-.23-1.36a1.72 1.72 0 0 0-.797-.837C18.293 3.963 17.5 4 16.5 4H13zm-9 9v4.5c0 .542.064.984.23 1.36.167.375.458.668.797.837.68.34 1.473.303 2.473.303H11v-1H7.5c-1 0-1.706-.037-2.027-.197a.615.615 0 0 1-.328-.35C5.06 18.266 5 17.958 5 17.5V13H4zm15 0v4.5c0 .458-.061.766-.145.953a.615.615 0 0 1-.328.35c-.32.16-1.027.197-2.027.197H13v1h3.5c1 0 1.794.037 2.473-.303.34-.17.63-.462.797-.838.166-.375.23-.817.23-1.359V13h-1z"/></svg>
